X: 37
T: Banjsko Oro
O: Macedonia
F: http://www.youtube.com/watch?v=Wd2Z-Xg1xrk
F: http://www.youtube.com/watch?v=3J_nxoiZOyE
M: 7/8
L: 1/8
K: Cm
%%MIDI gchord fzzfzzz
"Ab"AGA "Ab"Bc2e |"Bb"B2A"Gm" BAG2|\
"Fm"F=EF"Ab" GA2B|"Gm"G2F GFE2    |\
"Fm"F=EF "Ab"GA2B|"Gm"G2F GFE2    |\
E2F "Ddim"D2B,2  |"Cm"C7-         |C7     |
"Cm"C2D "Eb"E2F2 |E2D "Cm"C4      |\
"Bb"D2E F2G2     |"Ab"A3"Gm" G4   |\
G3 c4            |"Bb"B2A F4      |\
F2G A2B2         |"Gm"G7          |
"Bb"F2G A2B2     |G2F"Eb" E4      |\
"Ddim"D2E F2G2   |E4D3            |"Cm"C7-|C7|



